dist/svgs/core-ui-icons/free/cil-storage.svg

<svg xmlns="http://www.w3.org/2000/svg" viewBox="0 0 512 512"><path d="M16 48v416h480V48zm448 384H48v-96h416zm0-128H48v-96h416zM48 176V80h416v96z"/><path d="M80 112h32v32H80zm0 128h32v32H80zm0 128h32v32H80z"/></svg>

<svg xmlns="http://www.w3.org/2000/svg" viewBox="0 0 512 512">
  <path fill="var(--ci-primary-color, currentColor)" d="M16,48V464H496V48ZM464,432H48V336H464Zm0-128H48V208H464ZM48,176V80H464v96Z" class="ci-primary"/>
  <rect width="32" height="32" x="80" y="112" fill="var(--ci-primary-color, currentColor)" class="ci-primary"/>
  <rect width="32" height="32" x="80" y="240" fill="var(--ci-primary-color, currentColor)" class="ci-primary"/>
  <rect width="32" height="32" x="80" y="368" fill="var(--ci-primary-color, currentColor)" class="ci-primary"/>
</svg>
